!!!COM: Fanny (Mendelssohn) Hensel
!!!CNT: Deutsch
!!!TXO: Deutsch
!!!OTL: "Da2mmrung senkte sich von oben"
!!!LYR: von Goethe, Johann Wolfgang
!!!OPR: 
!!!OPS: Op. 
!!!ONM: No. 
!!!ENC: Emily Thomas
!!!YOR: Hensel: Ausgewa2hlte Lieder fu2r Singstimme und Klavier
!!!YOR: Breitkopf & Hartel, 1994 vol. 2
!!!ODT: 1843/
!!NB: Vocal melody and text encoded.
**kern	**silbe
=0-	=0
*clefG2	*
*k[f#c#]	*
*M4/4	*
*MM[Andante con moto]	*
2r	.
{4.f#	{Da2mm-
8f#	-rung
=1	=1
4.fn	senk-
8f#	-te
4.e	sich
8e	von
=2	=2
4b-	o-
4a	-ben,
4.dd	schon
8dd	ist
=3	=3
4.ccn	al-
8g	-le
4b-	Na2-
8ccn	-he
8b-	|
=4	=4
4a}	fern,}
4r	.
4r	.
{8a	{doch
8a	zu-
=5	=5
4a	-erst
4dd	em-
4.cc#	-por-
8dd	-ge-
=6	=6
2ff#	-ho-
4cc#	-ben
8ee	hol-
8cc#	-den
=7	=7
4.dd	Lichts
8b	der
4.dd	A-
8b	-bend-
=8	=8
4a	-stern!
4g#}	|}
2r	.
=9	=9
{4.cc#	{Al-
8cc#	-les
4.ccn	schwankt
8ccn	ins
=10	=10
4b-	Un-
8a	-ge-
8ffn	|
4ffn	-wis-
4a-}	-se,}
=11	=11
{4.a-	{Ne-
8a-	-bel
4g	schlei-
4fn	-chen
=12	=12
8e	in
8g	|
8b-	die
8ccn	|
2cc#}	Ho2h,}
=13	=13
{8dd	{schwarz-
8a	|
8f#	-ver-
8e	|
4d	-tief-
4d	-te
=14	=14
8dd	Fin-
8b	|
8f#	-ster-
8e	|
4d	-nis-
4d	-se
=15	=15
8dd	wi-
8a	|
8f#	-der-
8e	|
4d	-spie-
4d	-gelnd
=16	=16
2.a	ruht
4a	der
=17	=17
1a}	See.}
==	==
*-	*-
